icons/linear-ele-food-dish-1-round.svg

<svg xmlns="http://www.w3.org/2000/svg" width="32px" height="32px" viewBox="0 0 32 32" version="1.1">
    <title>linear-ele-food-dish-1-round</title>
    <g id="linear-ele-food-dish-1-round" stroke-width="1" fill-rule="evenodd">
        <path d="M29,26 C29.5522847,26 30,26.4477153 30,27 C30,27.5522847 29.5522847,28 29,28 L3,28 C2.44771525,28 2,27.5522847 2,27 C2,26.4477153 2.44771525,26 3,26 L29,26 Z M16,4 C18.209139,4 20,5.790861 20,8 L20.0007456,9.57997927 C25.7833403,11.3013162 30,16.6582313 30,23 C30,23.5522847 29.5522847,24 29,24 L3,24 C2.44771525,24 2,23.5522847 2,23 C2,16.6578647 6.21714721,11.3006968 12.0002573,9.57968077 L12,8 C12,5.790861 13.790861,4 16,4 Z M16,11 C9.78042405,11 4.66599302,15.7316879 4.06007801,21.7916926 L4.041,22 L27.958,22 L27.939922,21.7916926 C27.34394,15.8310322 22.3860506,11.1554943 16.3049748,11.0037999 L16,11 Z M16,6 C14.8954305,6 14,6.8954305 14,8 L14.0001595,9.1417549 C14.6533147,9.04833605 15.3210126,9 16,9 C16.6793345,9 17.347368,9.04838549 18.0008423,9.14189822 L18,8 C18,6.8954305 17.1045695,6 16,6 Z" id="&#24418;&#29366;" fill-rule="nonzero" />
    </g>
</svg>

<svg xmlns="http://www.w3.org/2000/svg" viewBox="0 0 32 32"><path fill="currentColor" d="M29 26a1 1 0 0 1 0 2H3a1 1 0 0 1 0-2zM16 4a4 4 0 0 1 4 4v1.58c5.783 1.721 10 7.078 10 13.42a1 1 0 0 1-1 1H3a1 1 0 0 1-1-1c0-6.342 4.217-11.7 10-13.42V8a4 4 0 0 1 4-4m0 7C9.78 11 4.666 15.732 4.06 21.792L4.041 22h23.917l-.018-.208c-.596-5.961-5.554-10.637-11.635-10.788zm0-5a2 2 0 0 0-2 2v1.142a14.119 14.119 0 0 1 4 0V8a2 2 0 0 0-2-2"/></svg>
